X:1
T:Die Güldne Sonne, 10.10.10.11.11.10
T:Die Güldne Sonne, 10.10.10.11.11.10
T:Johann Georg Ebeling (1637-1676)
T:Public Domain Courtesy of the Cyber Hymnal™
C:Johann Georg Ebeling (1637-1676)
Z:Public Domain
Z:Courtesy of the Cyber Hymnal™
%%score ( 1 2 ) ( 3 4 )
L:1/8
M:none
K:F
V:1 treble 
V:2 treble 
V:3 bass 
V:4 bass 
V:1
 [Fc]2 [Fc]2 [Fd]2 | c3 B [FA]2 [Fc]2 [FB]2 [EG]2 | A3 G [CF]2 [FA]2 [FB]2 [Fc]2 | %3
 [Fd]4 [Dd]2 [DG]2 [FA]2 [FB]2 | [Gc]4 [Gc]2 [DF]2 [DF]2 [EG]2 | %5
 [FA]3 [FB] [Fc]2 [DG]2 [CF]2 [CE]2 | [CF]6 | [Fc]2 [Fc]2 [DB]2 | %8
 [FA]2 [FA]2 [EG]2 [DF]3 [CE] [=B,D]2 | [CE]2 C4 [CF]2 [DF]2 [EG]2 | %10
 [FA]2 [FA]2 [EG]2 A3 F2 [G=B]2 | [Gc]2 [Gc]4 [CA]2 [DF]2 [EG]2 | %12
 [FA]3 [FB] [Fc]2 [DG]2 [CF]2 [CE]2 | F8 |] %14
V:2
 x6 | F4 x8 | F4 x8 | x12 | x12 | x12 | x6 | x6 | x12 | x2 C4 x6 | x6 F2 x5 | x12 | x12 | C8 |] %14
V:3
 [F,A,]2 [F,A,]2 [B,,B,]2 | A,3 B, [F,C]2 [A,,C]2 [B,,D]2 [C,C]2 | %2
 C3 B, [F,A,]2 [F,C]2 [D,B,]2 [C,A,]2 | [B,,B,]4 [B,,B,]2 [G,B,]2 [F,C]2 [D,D]2 | %4
 [C,E]4 [C,E]2 [D,A,]2 [D,A,]2 [C,C]2 | [F,C]3 [D,D] [A,,C]2 [B,,B,]2 [C,A,]2 [C,G,]2 | [F,A,]6 | %7
 [F,A,]2 [F,A,]2 [G,B,]2 | [F,C]2 [F,C]2 [C,C]2 [D,F,]3 [E,G,] G,2 | %9
 [C,G,]2 E,4 [A,,F,]2 [D,A,]2 [C,C]2 | [F,C]2 [F,C]2 [C,C]2 [F,C]2 [D,D]2 [G,D]2 x | %11
 [C,E]2 [C,E]4 [F,A,]2 [D,A,]2 [C,C]2 | [F,C]3 [D,D] [A,,C]2 [B,,B,]2 [C,A,]2 [C,G,]2 | A,8 |] %14
V:4
 x6 | F,4 x8 | F,4 x8 | x12 | x12 | x12 | x6 | x6 | x10 G,2 | x2 C,4 x6 | x13 | x12 | x12 | F,8 |] %14

